X:1
T:Lady Amelia Stuart's Waltz   [E]
M:3/8
L:1/8
Q:1/4=60
S:HSJ Jackson,Wyresdale,Lancs.1823
R:.Waltz
O:England
A:Lancashire
H:1823
Z:vmp.Chris Partington. HSJJ.134
F:http://richardrobinson.tunebook.org.uk/tune/9219
% - - - - - - - - - - - - - - -
K:E
B |\
eef | gge | aaf | bbg |\
eef | gge | ccd | e2 :|
|: B |\
agg | gBB | fcf | dcB |\
aa/g/a/b/ | gee | ccd | e2 :|
